X:1
T:Shche ne vmerla Ukrayina 未滅榮耀，不死自由
T:Mykhailo Verbytsky 1863
T:Pavlo Chubynsky 1862 安德烈漢譯
%%score ( 1 2 ) ( 3 4 )
L:1/8
Q:1/4=72
M:none
K:E
V:1 treble nm="Voice" snm="Vo."
V:2 treble 
V:3 bass nm="Voice" snm="Vo."
V:4 bass 
V:1
"^Adagio" G3 G GFGA | B3 A G2 F2 | E2 G2 D2 GG | C3 D E2 F2 | G3 G GFGA | B3 A G2 F2 | %6
w: 未 滅 榮- * * 耀，|不 死 自 由|永 歸 屬 烏 克|蘭 既 大 眾，|道 路 上- * * 有|天 主 保 佑，|
 E2 G2 D2 G2 | C4 C2 z2 | D3 D GFED | CDEC D2 D2 | E2 E2 F2 F2 | G4 G2 z2 | D3 D GFED | %13
w: 大 家 合 一|同 行。|大 敵 只- * * 係|凌- * * 晨 白 露，|早 晚 也 要|消 失。|獨 立 管- * * 治，|
 CDEC D2 D2 | E2 G2 D2 G2 | C3 D EFGA |: B3 ^A B2 G2 | F2 F2 BAGF | E2 E2 F2 F2 | G3 F EFGA | %20
w: 無- * * 容 掠 奪，|國 土 屬 我|人 民 大- * 眾- 。|我 願 捨 掉|靈 魂 身- * * 體|從 而 護 衛|自 由 民- * * 族，|
 B3 ^A B2 G2 | F2 F2 BAGF | E2 G2 D2 G2 | C4 C2 z2 :| G3 G GFGA | B3 A G2 F2 | E2 G2 D2 G2 | %27
w: 哥 薩 克 族|齊 來 宣- * * 示：|國 家 屬 於|人 民。|屹 立 護- * * 守|桑 水、 頓 河，|血 灑 戰 爭|
 C3 D E2 F2 | G3 G GFGA | B3 A G2 F2 | E2 G2 D2 G2 | C4 C2 z2 | D3 D GFED | CDEC D2 D2 | %34
w: 仍 未 棄 守，|外 敵 敗- * * 退，|祖 國 自 強，|永 不 屬 於|蠻 夷。|蕩 蕩 黑- * * 海|容- * * 顏 大 悅，|
 E2 E2 F2 F2 | G4 G2 z2 | D3 D GFED | CDEC D2 D2 | E2 G2 D2 GG | C3 D EFGA |: B3 ^A B2 G2 | %41
w: 聶 伯 也 要|高 歌。|意 志 光- * * 亮|如- * * 同 烈 日；|要 光 復 烏 克|蘭 既 地- * 土- 。|我 願 捨 掉|
 F2 F2 BAGF | E2 E2 F2 F2 | G3 F EFGA | B3 ^A B2 G2 | F2 F2 BAGF | E2 G2 D2 G2 | C4 C2 z2 :| %48
w: 靈 魂 身- * * 體|從 而 護 衛|自 由 民- * * 族，|哥 薩 克 族|齊 來 宣- * * 示：|國 家 屬 於|人 民。|
 G3 G GFGA | B3 A G2 F2 | E2 G2 D2 G2 | C3 D E2 F2 | G3 G GFGA | B3 A G2 F2 | E2 G2 D2 G2 | %55
w: 護 衛 自- * * 土，|堅 苦 卓 絕，|最 終 定 必|蒙 受 賜 賞。|大 地 和- * * 應|高 唱 自 由，|凱 歌 悅 耳|
 C4 C2 z2 | D3 D GFED | CDEC D2 D2 | E2 E2 F2 F2 | G4 G2 z2 | D3 D GFED | CDEC D2 D2 | %62
w: 洋 洋。|妙 樂 翻- * * 過|寒- * * 原 綠 地，|氣 勢 蓋 過|高 山。|就 讓 天- * * 下|晃- * * 然 大 悟，|
 E2 G2 D2 GG | C3 D EFGA || B3 ^A B2 G2 | F2 F2 BAGF | E2 E2 F2 F2 | G3 F EFGA | B3 ^A B2 G2 | %69
w: 見 識 到 烏 克|蘭 既 焰- * 氣- 。|我 願 捨 掉|靈 魂 身- * * 體|從 而 護 衛|自 由 民- * * 族，|哥 薩 克 族|
 F2 F2 BAGF | E2 G2 D2 G2 | C4 C2 z2 | B3 ^A B2 G2 | F2 F2 BAGF | E2 E2 F2 F2 | G3 F EFGA | %76
w: 齊 來 宣- * * 示：|國 家 屬 於|人 民。|我 願 捨 掉|靈 魂 身- * * 體|從 而 護 衛|自 由 民- * * 族，|
 B3 ^A B2 G2 | F2 F2 BAGF |[Q:1/4=60]"^Ballad" E2 G2 D2 G2 | c4 c4- | c4 z4 |] %81
w: 哥 薩 克 族|齊 來 宣- * * 示：|國 家 屬 於|人 民-|。|
V:2
 E3 E EDEF | G3 F E2 D2 | C2 E2 ^B,2 D2 | C3 ^B, C2 D2 | E3 E EDEF | G3 F E2 D2 | C2 E2 ^B,2 D2 | %7
 G,4 G,2 z2 | ^B,3 B, B,DCB, | C3 C ^B,2 B,2 | C2 C2 D2 D2 | E4 E2 z2 | x8 | C3 C ^B,2 B,2 | %14
 C2 E2 ^B,2 D2 | E,3 G, B,2 E2 |: G3 F G2 E2 | D2 D2 DFED | C2 C2 D2 B,2 | E3 D CDEF | G3 F G2 E2 | %21
 D2 D2 DFED | C2 E2 ^B,2 D2 | G,4 G,2 z2 :| E3 E EDEF | G3 F E2 D2 | C2 E2 ^B,2 D2 | C3 ^B, C2 D2 | %28
 E3 E EDEF | G3 F E2 D2 | C2 E2 ^B,2 D2 | G,4 G,2 z2 | ^B,3 B, B,DCB, | C3 C ^B,2 B,2 | %34
 C2 C2 D2 D2 | E4 E2 z2 | x8 | C3 C ^B,2 B,2 | C2 E2 ^B,2 D2 | E,3 G, B,2 E2 |: G3 F G2 E2 | %41
 D2 D2 DFED | C2 C2 D2 B,2 | E3 D CDEF | G3 F G2 E2 | D2 D2 DFED | C2 E2 ^B,2 D2 | G,4 G,2 z2 :| %48
 E3 E EDEF | G3 F E2 D2 | C2 E2 ^B,2 D2 | C3 ^B, C2 D2 | E3 E EDEF | G3 F E2 D2 | C2 E2 ^B,2 D2 | %55
 G,4 G,2 z2 | ^B,3 B, B,DCB, | C3 C ^B,2 B,2 | C2 C2 D2 D2 | E4 E2 z2 | x8 | C3 C ^B,2 B,2 | %62
 C2 E2 ^B,2 D2 | E,3 G, B,2 E2 || G3 F G2 E2 | D2 D2 DFED | C2 C2 D2 B,2 | E3 D CDEF | G3 F G2 E2 | %69
 D2 D2 DFED | C2 E2 ^B,2 D2 | G,4 G,2 z2 | G3 F G2 E2 | D2 D2 DFED | C2 C2 D2 B,2 | E3 D CDEF | %76
 G3 F G2 E2 | D2 D2 DFED | C2 E2 ^B,2 D2 | E4 E4- | E4 z4 |] %81
V:3
 B,3 B, B,A,B,C | E3 D C2 B,2 | G,2 C2 F,2 =C2 | C3 ^B, G,2 A,2 | B,3 B, B,A,B,C | E3 D C2 B,2 | %6
 G,2 C2 F,2 ^B,2 | C4 C2 z2 | z8 | G,3 F, G,2 G,2 | G,2 G,2 B,2 B,2 | G,4 G,2 z2 | ^B,3 B, B,DCB, | %13
 G,3 F, G,2 G,2 | G,2 C2 F,2 ^B,2 | G,3 ^B, G,2 =B,C |: E3 D E2 B,2 | B,2 B,2 DCB,A, | %18
 G,2 G,2 B,2 B,2 | B,3 A, G,A,B,C | E3 D E2 B,2 | B,2 B,2 DCB,A, | G,2 C2 F,2 ^B,2 | E,4 E,2 z2 :| %24
 B,3 B, B,A,B,C | E3 D C2 B,2 | G,2 C2 F,2 =C2 | C3 ^B, G,2 A,2 | B,3 B, B,A,B,C | E3 D C2 B,2 | %30
 G,2 C2 F,2 ^B,2 | C4 C2 z2 | z8 | G,3 F, G,2 G,2 | G,2 G,2 B,2 B,2 | G,4 G,2 z2 | ^B,3 B, B,DCB, | %37
 G,3 F, G,2 G,2 | G,2 C2 F,2 ^B,2 | G,3 ^B, G,2 =B,C |: E3 D E2 B,2 | B,2 B,2 DCB,A, | %42
 G,2 G,2 B,2 B,2 | B,3 A, G,A,B,C | E3 D E2 B,2 | B,2 B,2 DCB,A, | G,2 C2 F,2 ^B,2 | E,4 E,2 z2 :| %48
 B,3 B, B,A,B,C | E3 D C2 B,2 | G,2 C2 F,2 =C2 | C3 ^B, G,2 A,2 | B,3 B, B,A,B,C | E3 D C2 B,2 | %54
 G,2 C2 F,2 ^B,2 | C4 C2 z2 | z8 | G,3 F, G,2 G,2 | G,2 G,2 B,2 B,2 | G,4 G,2 z2 | ^B,3 B, B,DCB, | %61
 G,3 F, G,2 G,2 | G,2 C2 F,2 ^B,2 | G,3 ^B, G,2 =B,C || E3 D E2 B,2 | B,2 B,2 DCB,A, | %66
 G,2 G,2 B,2 B,2 | B,3 A, G,A,B,C | E3 D E2 B,2 | B,2 B,2 DCB,A, | G,2 C2 F,2 ^B,2 | E,4 E,2 z2 | %72
 E3 D E2 B,2 | B,2 B,2 DCB,A, | G,2 G,2 B,2 B,2 | B,3 A, G,A,B,C | E3 D E2 B,2 | B,2 B,2 DCB,A, | %78
 G,2 C2 F,2 ^B,2 | G,4 G,4- | G,4 z4 |] %81
V:4
 E,3 E, E,B,,B,,E, | E,3 B,, G,,2 B,,2 | C,2 G,2 D,2 G,2 | G,3 G,, C,2 D,2 | E,3 E, E,B,,B,,E, | %5
 E,3 B,, G,,2 B,,2 | C,2 E,2 G,,2 ^B,,2 | [C,E,]4 [C,E,]2 z2 | G,,3 G,, G,,2 G,,2 | %9
 C,3 G,, ^B,,2 B,,2 | E,2 E,2 B,,2 B,,2 | G,,4 G,,2 z2 | G,,3 G,, G,,2 G,,2 | C,3 G,, ^B,,2 B,,2 | %14
 G,,2 C,2 D,2 ^B,,2 | C,6 E,2 |: E,3 E, E,2 E,2 | B,,2 B,,2 B,,2 B,,2 | E,2 E,2 B,,2 B,,2 | %19
 E,3 D, C,2 B,,2 | E,3 E, E,2 E,2 | B,,2 B,,2 B,,2 B,,2 | G,,2 C,2 D,2 ^B,,2 | C,4 C,2 z2 :| %24
 E,3 E, E,B,,B,,E, | E,3 B,, G,,2 B,,2 | C,2 G,2 D,2 G,2 | G,3 G,, C,2 D,2 | E,3 E, E,B,,B,,E, | %29
 E,3 B,, G,,2 B,,2 | C,2 E,2 G,,2 ^B,,2 | [C,E,]4 [C,E,]2 z2 | G,,3 G,, G,,2 G,,2 | %33
 C,3 G,, ^B,,2 B,,2 | E,2 E,2 B,,2 B,,2 | G,,4 G,,2 z2 | G,,3 G,, G,,2 G,,2 | C,3 G,, ^B,,2 B,,2 | %38
 G,,2 C,2 D,2 ^B,,2 | C,6 E,2 |: E,3 E, E,2 E,2 | B,,2 B,,2 B,,2 B,,2 | E,2 E,2 B,,2 B,,2 | %43
 E,3 D, C,2 B,,2 | E,3 E, E,2 E,2 | B,,2 B,,2 B,,2 B,,2 | G,,2 C,2 D,2 ^B,,2 | C,4 C,2 z2 :| %48
 E,3 E, E,B,,B,,E, | E,3 B,, G,,2 B,,2 | C,2 G,2 D,2 G,2 | G,3 G,, C,2 D,2 | E,3 E, E,B,,B,,E, | %53
 E,3 B,, G,,2 B,,2 | C,2 E,2 G,,2 ^B,,2 | [C,E,]4 [C,E,]2 z2 | G,,3 G,, G,,2 G,,2 | %57
 C,3 G,, ^B,,2 B,,2 | E,2 E,2 B,,2 B,,2 | G,,4 G,,2 z2 | G,,3 G,, G,,2 G,,2 | C,3 G,, ^B,,2 B,,2 | %62
 G,,2 C,2 D,2 ^B,,2 | C,6 E,2 || E,3 E, E,2 E,2 | B,,2 B,,2 B,,2 B,,2 | E,2 E,2 B,,2 B,,2 | %67
 E,3 D, C,2 B,,2 | E,3 E, E,2 E,2 | B,,2 B,,2 B,,2 B,,2 | G,,2 C,2 D,2 ^B,,2 | C,4 C,2 z2 | %72
 E,3 E, E,2 E,2 | B,,2 B,,2 B,,2 B,,2 | E,2 E,2 B,,2 B,,2 | E,3 D, C,2 B,,2 | E,3 E, E,2 E,2 | %77
 B,,2 B,,2 B,,2 B,,2 | G,,2 C,2 D,2 ^B,,2 | [G,,C,]4 C,4- | C,4 z4 |] %81

